X:92
T:On Board a Man of War. JJo.092
S:J.Jones MS,1801,N.Shrops.
N:The barring slips in between 3/4and 4/4 but is intended to be 4/4.
N:I have left the original barlines in place.
N:The song tune has an instrumental section after the first line
N:and again at the end. This would seem to be a parlour piece
N:rather than a ‘folk’ song.NB…The folk song is about a pressgang.
A:N Shropshire
Z:Neil Brookes 2006
M:4/4
L:1/8
Q:1/4=140
K:G
GB|d2Bde2|ced2B2|g2fed2|BG cBAG|B3c/B/A2GB|!
d2Bd e2dc|d2Bd g2fe|d2BG cA GF|”sym”GB dg bgfe|!
dBGB cA GF|G2G2G2″song”FG|!
A2ABc2BA|BcdB g2fe|d2BG EG cA|G3A/G/F2GB|!
d2BGe2dc|dB dBg2dc|G4z2d>d|!
g2g>gg2d2|g6B>B|e2e>eB2|e6ef|!
ge ce d2 BG|AB cd cBAG|g2d>cB2TA2|G2G>GG2″sy”ga|!
bgdB cA c’a|d’bgd ec ge|dgdB cA GF|G2G2G3z|]

